;FLAVOR:Marlin
;TIME:4703
;Filament used: 3.92819m
;Layer height: 0.2
;MINX:140.197
;MINY:138
;MINZ:0.2
;MAXX:225.197
;MAXY:225.825
;MAXZ:11
;Generated with Cura_SteamEngine 5.2.1
M140 S60
M105
M190 S60
M104 S200
M105
M109 S200
M82 ;absolute extrusion mode
M201 X500.00 Y500.00 Z100.00 E5000.00 ;Setup machine max acceleration
M203 X500.00 Y500.00 Z10.00 E50.00 ;Setup machine max feedrate
M204 P500.00 R1000.00 T500.00 ;Setup Print/Retract/Travel acceleration
M205 X8.00 Y8.00 Z0.40 E5.00 ;Setup Jerk
M220 S100 ;Reset Feedrate
M221 S100 ;Reset Flowrate

G28 ;Home
M420 S1 Z2 ;Enable ABL using saved Mesh and Fade Height

G92 E0 ;Reset Extruder
G1 Z2.0 F3000 ;Move Z Axis up
G1 X10.1 Y20 Z0.28 F5000.0 ;Move to start position
G1 X10.1 Y200.0 Z0.28 F1500.0 E15 ;Draw the first line
G1 X10.4 Y200.0 Z0.28 F5000.0 ;Move to side a little
G1 X10.4 Y20 Z0.28 F1500.0 E30 ;Draw the second line
G92 E0 ;Reset Extruder
G1 Z2.0 F3000 ;Move Z Axis up

G92 E0
G92 E0
G1 F1500 E-6.5
;LAYER_COUNT:55
;LAYER:0
M107
G0 F6000 X153.474 Y144.361 Z0.2
;TYPE:SKIRT
G1 F1500 E0
G1 F1200 X154.011 Y143.807 E0.02566
G1 X154.754 Y143.135 E0.05898
G1 X156.777 Y141.248 E0.151
G1 X157.956 Y140.086 E0.20605
G1 X158.383 Y139.677 E0.22572
G1 X158.91 Y139.228 E0.24875
G1 X159.485 Y138.842 E0.27178
G1 X160.101 Y138.525 E0.29482
G1 X160.749 Y138.281 E0.31785
G1 X161.421 Y138.114 E0.34088
G1 X162.349 Y138.013 E0.37193
G1 X162.859 Y138 E0.3889
G1 X202.322 Y138 E1.70144
G1 X203.11 Y138.011 E1.72766
G1 X203.801 Y138.06 E1.7507
G1 X204.481 Y138.189 E1.77372
G1 X205.142 Y138.396 E1.79675
G1 X205.775 Y138.677 E1.81979
G1 X206.371 Y139.03 E1.84283
G1 X206.923 Y139.449 E1.86588
G1 X207.234 Y139.734 E1.87991
G1 X207.985 Y140.474 E1.91497
G1 X209.935 Y142.34 E2.00474
G1 X211.199 Y143.484 E2.06145
G1 X211.599 Y143.855 E2.07959
G1 X212.079 Y144.354 E2.10262
G1 X212.498 Y144.906 E2.12567
G1 X212.851 Y145.502 E2.14871
G1 X213.132 Y146.134 E2.17171
G1 X213.339 Y146.795 E2.19475
G1 X213.48 Y147.571 E2.22098
G1 X213.595 Y148.577 E2.25466
G1 X213.947 Y151.306 E2.34618
G1 X214.359 Y153.921 E2.43423
G1 X214.851 Y156.553 E2.52329
G1 X215.4 Y159.097 E2.60985
G1 X216.047 Y161.72 E2.6997
G1 X216.755 Y164.28 E2.78805
G1 X217.536 Y166.825 E2.87659
G1 X218.387 Y169.34 E2.9649
G1 X219.314 Y171.845 E3.05374
G1 X220.294 Y174.281 E3.14107
G1 X221.368 Y176.743 E3.23041
G1 X222.495 Y179.141 E3.31853
G1 X223.7 Y181.529 E3.4075
G1 X223.999 Y182.081 E3.42838
G1 X224.501 Y183.04 E3.46438
G1 X224.786 Y183.671 E3.48741
G1 X224.997 Y184.331 E3.51045
G1 X225.13 Y185.011 E3.5335
G1 X225.181 Y185.606 E3.55336
G1 X225.197 Y186.155 E3.57163
G1 X225.196 Y197.171 E3.93802
G1 X225.186 Y197.9 E3.96227
G1 X225.137 Y198.591 E3.98531
G1 X225.008 Y199.272 E4.00837
G1 X224.802 Y199.933 E4.03139
G1 X224.521 Y200.566 E4.05443
G1 X224.169 Y201.162 E4.07745
G1 X223.75 Y201.714 E4.1005
G1 X223.271 Y202.214 E4.12353
G1 X222.737 Y202.655 E4.14656
G1 X222.156 Y203.032 E4.1696
G1 X221.426 Y203.384 E4.19656
G1 X218.7 Y204.481 E4.29429
G1 X216.267 Y205.544 E4.3826
G1 X213.839 Y206.686 E4.47184
G1 X211.477 Y207.881 E4.55988
G1 X209.129 Y209.152 E4.64868
G1 X206.837 Y210.481 E4.73681
G1 X204.6 Y211.86 E4.82421
G1 X202.359 Y213.332 E4.91339
G1 X200.159 Y214.868 E5.00263
G1 X198.064 Y216.422 E5.08939
G1 X195.931 Y218.099 E5.17963
G1 X193.912 Y219.78 E5.26701
G1 X191.901 Y221.554 E5.3562
G1 X190.014 Y223.315 E5.44205
G1 X189.143 Y224.149 E5.48216
G1 X188.616 Y224.598 E5.50518
G1 X188.04 Y224.984 E5.52825
G1 X187.424 Y225.3 E5.55127
G1 X186.776 Y225.544 E5.5743
G1 X186.104 Y225.711 E5.59733
G1 X185.177 Y225.812 E5.62835
G1 X184.667 Y225.825 E5.64532
G1 X181.018 Y225.824 E5.76668
G1 X180.317 Y225.814 E5.79
G1 X179.627 Y225.765 E5.81301
G1 X178.946 Y225.635 E5.83607
G1 X178.285 Y225.429 E5.85909
G1 X177.653 Y225.147 E5.88211
G1 X177.056 Y224.795 E5.90516
G1 X176.261 Y224.155 E5.93911
G1 X174.398 Y222.377 E6.02476
G1 X172.366 Y220.54 E6.11587
G1 X170.387 Y218.851 E6.20241
G1 X168.29 Y217.161 E6.29198
G1 X166.209 Y215.578 E6.37895
G1 X164.013 Y214.004 E6.46881
G1 X161.816 Y212.52 E6.55699
G1 X159.589 Y211.109 E6.64468
G1 X157.274 Y209.73 E6.7343
G1 X154.984 Y208.452 E6.82152
G1 X152.611 Y207.215 E6.91053
G1 X150.216 Y206.052 E6.99908
G1 X147.786 Y204.955 E7.08776
G1 X145.3 Y203.916 E7.17738
G1 X143.98 Y203.389 E7.22465
G1 X143.353 Y203.096 E7.24767
G1 X142.764 Y202.732 E7.2707
G1 X142.22 Y202.302 E7.29376
G1 X141.73 Y201.813 E7.31678
G1 X141.3 Y201.27 E7.33982
G1 X140.935 Y200.682 E7.36284
G1 X140.64 Y200.055 E7.38589
G1 X140.419 Y199.399 E7.40891
G1 X140.275 Y198.722 E7.43193
G1 X140.21 Y198.004 E7.45591
G1 X140.197 Y197.495 E7.47284
G1 X140.198 Y186.447 E7.8403
G1 X140.208 Y185.743 E7.86372
G1 X140.257 Y185.052 E7.88676
G1 X140.386 Y184.372 E7.90978
G1 X140.593 Y183.711 E7.93282
G1 X140.926 Y182.98 E7.95954
G1 X141.318 Y182.253 E7.98701
G1 X142.537 Y179.917 E8.07465
G1 X143.727 Y177.47 E8.16515
G1 X144.809 Y175.075 E8.25256
G1 X145.84 Y172.606 E8.34155
G1 X146.789 Y170.143 E8.42934
G1 X147.666 Y167.661 E8.51689
G1 X148.49 Y165.098 E8.60643
G1 X149.225 Y162.572 E8.69393
G1 X149.902 Y159.967 E8.78345
G1 X150.5 Y157.37 E8.87209
G1 X151.016 Y154.797 E8.95937
G1 X151.47 Y152.15 E9.0487
G1 X151.842 Y149.537 E9.13648
G1 X151.974 Y148.374 E9.17541
G1 X152.089 Y147.484 E9.20526
G1 X152.217 Y146.804 E9.22828
G1 X152.423 Y146.142 E9.25134
G1 X152.704 Y145.509 E9.27437
G1 X153.055 Y144.913 E9.29738
G1 X153.474 Y144.361 E9.32043
G0 F6000 X153.853 Y144.535
G1 F1200 X154.28 Y144.103 E9.34063
G1 X155.05 Y143.406 E9.37517
G1 X157.048 Y141.542 E9.46606
G1 X158.232 Y140.375 E9.52135
G1 X158.659 Y139.966 E9.54101
G1 X159.169 Y139.533 E9.56327
G1 X159.727 Y139.164 E9.58552
G1 X160.325 Y138.864 E9.60777
G1 X160.955 Y138.637 E9.63004
G1 X161.607 Y138.487 E9.65229
G1 X162.361 Y138.413 E9.67749
G1 X162.859 Y138.4 E9.69406
G1 X202.322 Y138.4 E11.00661
G1 X203.105 Y138.411 E11.03265
G1 X203.772 Y138.46 E11.0549
G1 X204.428 Y138.589 E11.07713
G1 X205.065 Y138.795 E11.0994
G1 X205.672 Y139.075 E11.12163
G1 X206.242 Y139.426 E11.1439
G1 X206.954 Y140.019 E11.17472
G1 X207.712 Y140.765 E11.21009
G1 X209.654 Y142.624 E11.2995
G1 X211.327 Y144.148 E11.37477
G1 X211.79 Y144.632 E11.39705
G1 X212.191 Y145.167 E11.41929
G1 X212.526 Y145.746 E11.44154
G1 X212.789 Y146.361 E11.46378
G1 X212.977 Y147.003 E11.48603
G1 X213.083 Y147.617 E11.50676
G1 X213.205 Y148.686 E11.54254
G1 X213.55 Y151.354 E11.63202
G1 X213.964 Y153.986 E11.72064
G1 X214.459 Y156.633 E11.8102
G1 X215.016 Y159.212 E11.89796
G1 X215.658 Y161.818 E11.98723
G1 X216.372 Y164.399 E12.07629
G1 X217.147 Y166.923 E12.16411
G1 X218.008 Y169.47 E12.25353
G1 X218.939 Y171.985 E12.34273
G1 X219.933 Y174.453 E12.43122
G1 X221.003 Y176.908 E12.5203
G1 X222.127 Y179.299 E12.60817
G1 X223.356 Y181.735 E12.69892
G1 X223.644 Y182.267 E12.71904
G1 X224.146 Y183.226 E12.75504
G1 X224.421 Y183.836 E12.7773
G1 X224.62 Y184.475 E12.79956
G1 X224.742 Y185.132 E12.82178
G1 X224.781 Y185.621 E12.8381
G1 X224.797 Y186.155 E12.85587
G1 X224.796 Y197.166 E13.2221
G1 X224.786 Y197.895 E13.24634
G1 X224.737 Y198.562 E13.26859
G1 X224.609 Y199.219 E13.29085
G1 X224.403 Y199.855 E13.31309
G1 X224.123 Y200.463 E13.33535
G1 X223.772 Y201.033 E13.35762
G1 X223.356 Y201.556 E13.37984
G1 X222.881 Y202.027 E13.40209
G1 X222.352 Y202.437 E13.42435
G1 X221.779 Y202.782 E13.4466
G1 X221.277 Y203.013 E13.46498
G1 X218.557 Y204.107 E13.56249
G1 X216.086 Y205.187 E13.65218
G1 X213.653 Y206.331 E13.7416
G1 X211.313 Y207.515 E13.82883
G1 X208.932 Y208.804 E13.91888
G1 X206.632 Y210.137 E14.0073
G1 X204.35 Y211.545 E14.09648
G1 X202.156 Y212.986 E14.18378
G1 X199.938 Y214.535 E14.27376
G1 X197.784 Y216.132 E14.36295
G1 X195.691 Y217.778 E14.45151
G1 X193.657 Y219.471 E14.53953
G1 X191.646 Y221.245 E14.62872
G1 X189.715 Y223.048 E14.71659
G1 X188.866 Y223.86 E14.75567
G1 X188.356 Y224.293 E14.77792
G1 X187.798 Y224.662 E14.80017
G1 X187.2 Y224.962 E14.82242
G1 X186.57 Y225.188 E14.84468
G1 X185.918 Y225.338 E14.86693
G1 X185.165 Y225.412 E14.8921
G1 X184.667 Y225.425 E14.90867
G1 X181.024 Y225.424 E15.02984
G1 X180.323 Y225.414 E15.05315
G1 X179.656 Y225.365 E15.0754
G1 X178.999 Y225.236 E15.09767
G1 X178.363 Y225.03 E15.1199
G1 X177.756 Y224.75 E15.14213
G1 X177.186 Y224.399 E15.1644
G1 X176.537 Y223.866 E15.19233
G1 X174.659 Y222.073 E15.27869
G1 X172.647 Y220.256 E15.36886
G1 X170.617 Y218.523 E15.45764
G1 X168.555 Y216.86 E15.54574
G1 X166.438 Y215.25 E15.6342
G1 X164.248 Y213.68 E15.72383
G1 X162.024 Y212.178 E15.81309
G1 X159.787 Y210.76 E15.90118
G1 X157.495 Y209.396 E15.98989
G1 X155.158 Y208.091 E16.07892
G1 X152.806 Y206.865 E16.16713
G1 X150.376 Y205.685 E16.25698
G1 X147.955 Y204.593 E16.34532
G1 X145.453 Y203.547 E16.43551
G1 X144.129 Y203.018 E16.48293
G1 X143.523 Y202.733 E16.50521
G1 X142.956 Y202.378 E16.52746
G1 X142.436 Y201.958 E16.54969
G1 X141.969 Y201.478 E16.57196
G1 X141.563 Y200.947 E16.59419
G1 X141.223 Y200.371 E16.61644
G1 X140.954 Y199.758 E16.63871
G1 X140.76 Y199.118 E16.66095
G1 X140.644 Y198.459 E16.6832
G1 X140.61 Y197.991 E16.69881
G1 X140.597 Y197.495 E16.71531
G1 X140.598 Y186.452 E17.08261
G1 X140.608 Y185.748 E17.10602
G1 X140.657 Y185.081 E17.12827
G1 X140.786 Y184.425 E17.1505
G1 X140.992 Y183.788 E17.17277
G1 X141.278 Y183.17 E17.19542
G1 X141.67 Y182.443 E17.22289
G1 X142.894 Y180.098 E17.31087
G1 X144.08 Y177.66 E17.40105
G1 X145.178 Y175.228 E17.4898
G1 X146.211 Y172.755 E17.57894
G1 X147.164 Y170.283 E17.66705
G1 X148.052 Y167.769 E17.75573
G1 X148.869 Y165.227 E17.84454
G1 X149.61 Y162.68 E17.93276
G1 X150.294 Y160.053 E18.02305
G1 X150.887 Y157.473 E18.1111
G1 X151.41 Y154.865 E18.19957
G1 X151.866 Y152.208 E18.28923
G1 X152.241 Y149.572 E18.37779
G1 X152.382 Y148.331 E18.41933
G1 X152.485 Y147.535 E18.44603
G1 X152.611 Y146.878 E18.46828
G1 X152.813 Y146.241 E18.4905
G1 X153.091 Y145.632 E18.51277
G1 X153.439 Y145.06 E18.53504
G1 X153.853 Y144.535 E18.55728
G0 F6000 X154.231 Y144.713
G1 F1200 X154.548 Y144.4 E18.57209
G1 X155.353 Y143.671 E18.60822
G1 X157.301 Y141.854 E18.69682
G1 X158.509 Y140.664 E18.75322
G1 X158.936 Y140.255 E18.77288
G1 X159.428 Y139.839 E18.79431
G1 X159.968 Y139.486 E18.81577
G1 X160.548 Y139.204 E18.83722
G1 X161.158 Y138.995 E18.85866
G1 X161.789 Y138.864 E18.8801
G1 X162.374 Y138.812 E18.89963
G1 X162.859 Y138.8 E18.91577
G1 X202.322 Y138.8 E20.22831
G1 X203.099 Y138.811 E20.25416
G1 X203.742 Y138.86 E20.27561
G1 X204.374 Y138.988 E20.29706
G1 X204.985 Y139.193 E20.31849
G1 X205.566 Y139.473 E20.33994
G1 X206.107 Y139.822 E20.36135
G1 X206.673 Y140.304 E20.38608
G1 X207.437 Y141.056 E20.42174
G1 X209.374 Y142.911 E20.51094
G1 X210.655 Y144.07 E20.5684
G1 X211.055 Y144.441 E20.58654
G1 X211.5 Y144.908 E20.608
G1 X211.883 Y145.427 E20.62945
G1 X212.199 Y145.988 E20.65087
G1 X212.444 Y146.585 E20.67233
G1 X212.613 Y147.207 E20.69377
G1 X212.685 Y147.662 E20.70909
G1 X212.806 Y148.715 E20.74434
G1 X213.152 Y151.395 E20.83422
G1 X213.575 Y154.084 E20.92475
G1 X214.063 Y156.691 E21.01297
G1 X214.623 Y159.287 E21.1013
G1 X215.268 Y161.906 E21.19101
G1 X215.991 Y164.518 E21.28115
G1 X216.772 Y167.063 E21.3697
G1 X217.63 Y169.6 E21.45877
G1 X218.569 Y172.137 E21.54875
G1 X219.566 Y174.614 E21.63756
G1 X220.633 Y177.06 E21.72631
G1 X221.773 Y179.485 E21.81544
G1 X222.984 Y181.886 E21.90488
G1 X223.29 Y182.452 E21.92628
G1 X223.792 Y183.411 E21.96228
G1 X224.055 Y184 E21.98373
G1 X224.243 Y184.617 E22.00519
G1 X224.354 Y185.252 E22.02663
G1 X224.382 Y185.635 E22.0394
G1 X224.397 Y186.155 E22.0567
G1 X224.397 Y197.16 E22.42273
G1 X224.387 Y197.889 E22.44698
G1 X224.338 Y198.532 E22.46843
G1 X224.21 Y199.164 E22.48988
G1 X224.005 Y199.775 E22.51131
G1 X223.725 Y200.356 E22.53276
G1 X223.376 Y200.898 E22.5542
G1 X222.963 Y201.393 E22.57564
G1 X222.492 Y201.833 E22.59708
G1 X221.97 Y202.211 E22.61852
G1 X221.128 Y202.642 E22.64998
G1 X218.384 Y203.746 E22.74835
G1 X215.935 Y204.816 E22.83724
G1 X213.495 Y205.963 E22.92692
G1 X211.107 Y207.172 E23.01594
G1 X208.732 Y208.458 E23.10577
G1 X206.443 Y209.784 E23.19376
G1 X204.143 Y211.203 E23.28364
G1 X201.913 Y212.667 E23.37237
G1 X199.716 Y214.202 E23.46151
G1 X197.545 Y215.812 E23.5514
G1 X195.433 Y217.473 E23.64077
G1 X193.4 Y219.165 E23.72874
G1 X191.355 Y220.969 E23.81944
G1 X189.46 Y222.737 E23.90564
G1 X188.589 Y223.571 E23.94575
G1 X188.097 Y223.987 E23.96718
G1 X187.557 Y224.339 E23.98862
G1 X186.977 Y224.621 E24.01007
G1 X186.367 Y224.83 E24.03152
G1 X185.736 Y224.962 E24.05296
G1 X185.152 Y225.013 E24.07246
G1 X184.667 Y225.025 E24.08859
G1 X181.03 Y225.024 E24.20956
G1 X180.329 Y225.014 E24.23288
G1 X179.686 Y224.965 E24.25433
G1 X179.054 Y224.837 E24.27577
G1 X178.443 Y224.632 E24.29721
G1 X177.862 Y224.352 E24.31866
G1 X177.32 Y224.003 E24.3401
G1 X176.813 Y223.577 E24.36213
G1 X174.92 Y221.77 E24.44917
G1 X172.912 Y219.956 E24.53917
G1 X170.883 Y218.223 E24.62792
G1 X168.803 Y216.546 E24.71679
G1 X166.651 Y214.91 E24.8067
G1 X164.476 Y213.351 E24.8957
G1 X162.256 Y211.852 E24.9848
G1 X160 Y210.421 E25.07365
G1 X157.699 Y209.052 E25.16271
G1 X155.358 Y207.746 E25.25186
G1 X152.959 Y206.494 E25.34187
G1 X150.561 Y205.33 E25.43053
G1 X148.108 Y204.223 E25.52004
G1 X145.63 Y203.188 E25.60935
G1 X144.277 Y202.647 E25.65782
G1 X143.694 Y202.371 E25.67927
G1 X143.15 Y202.025 E25.70072
G1 X142.653 Y201.614 E25.72217
G1 X142.211 Y201.145 E25.7436
G1 X141.83 Y200.625 E25.76504
G1 X141.516 Y200.062 E25.78648
G1 X141.275 Y199.464 E25.80793
G1 X141.109 Y198.841 E25.82937
G1 X141.009 Y197.979 E25.85823
G1 X140.997 Y197.495 E25.87434
G1 X140.998 Y186.458 E26.24143
G1 X141.008 Y185.754 E26.26485
G1 X141.057 Y185.111 E26.28629
G1 X141.185 Y184.48 E26.30771
G1 X141.39 Y183.869 E26.32914
G1 X141.63 Y183.36 E26.34786
G1 X142.002 Y182.67 E26.37393
G1 X143.265 Y180.251 E26.4647
G1 X144.441 Y177.834 E26.5541
G1 X145.541 Y175.397 E26.64303
G1 X146.577 Y172.917 E26.73242
G1 X147.542 Y170.412 E26.8217
G1 X148.434 Y167.888 E26.91074
G1 X149.251 Y165.346 E26.99955
G1 X149.995 Y162.787 E27.08818
G1 X150.683 Y160.146 E27.17896
G1 X151.277 Y157.563 E27.26711
G1 X151.81 Y154.905 E27.35728
G1 X152.256 Y152.301 E27.44515
G1 X152.636 Y149.636 E27.53468
G1 X152.779 Y148.383 E27.57663
G1 X152.882 Y147.587 E27.60332
G1 X153.004 Y146.954 E27.62476
G1 X153.204 Y146.341 E27.64621
G1 X153.478 Y145.757 E27.66766
G1 X153.822 Y145.212 E27.6891
G1 X154.231 Y144.713 E27.71056
G1 F1500 E21.21056
;MESH:support v4_reduced.stl(3)
G0 F6000 X169.869 Y155.169
G0 X171.588 Y156.556
;TYPE:WALL-INNER
G1 F1500 E27.71056
G1 F1200 X171.236 Y156.399 E27.72338
G1 X170.933 Y156.208 E27.73529
G1 X170.706 Y156.025 E27.74499
G1 X170.415 Y155.722 E27.75896
G1 X170.222 Y155.45 E27.77006
G1 X170.034 Y155.097 E27.78336
G1 X169.897 Y154.705 E27.79717
G1 X169.83 Y154.378 E27.80827
G1 X169.804 Y154.029 E27.81991
G1 X169.835 Y153.593 E27.83445
G1 X169.903 Y153.267 E27.84553
G1 X170.029 Y152.915 E27.85796
G1 X170.199 Y152.586 E27.87028
G1 X170.413 Y152.28 E27.8827
G1 X170.638 Y152.037 E27.89371
G1 X170.926 Y151.797 E27.90618
G1 X171.236 Y151.601 E27.91838
G1 X171.574 Y151.449 E27.93071
G1 X171.93 Y151.342 E27.94307
G1 X171.992 Y151.327 E27.94519
G1 X172.297 Y151.286 E27.95543
G1 X172.673 Y151.28 E27.96793
G1 X173.076 Y151.328 E27.98143
G1 X173.469 Y151.443 E27.99505
G1 X173.818 Y151.599 E28.00777
G1 X174.123 Y151.791 E28.01975
G1 X174.409 Y152.028 E28.03211
G1 X174.614 Y152.245 E28.04204
G1 X174.832 Y152.547 E28.05442
G1 X175.026 Y152.904 E28.06794
G1 X175.161 Y153.295 E28.0817
G1 X175.232 Y153.661 E28.0941
G1 X175.255 Y153.992 E28.10513
G1 X175.226 Y154.391 E28.11844
